packages/ui-icons/svg/Line/announcement.svg

<svg viewBox="0 0 1920 1920" version="1.1" xmlns="http://www.w3.org/2000/svg">
    <path d="M1587.16235,31.2784941 C1598.68235,7.78672942 1624.43294,-4.41091764 1650.63529,1.46202354 C1676.16,7.56084707 1694.11765,30.2620235 1694.11765,56.4643765 L1694.11765,56.4643765 L1694.11765,570.459671 C1822.87059,596.662024 1920,710.732612 1920,847.052612 C1920,983.372612 1822.87059,1097.55614 1694.11765,1123.75849 L1694.11765,1123.75849 L1694.11765,1637.64085 C1694.11765,1663.8432 1676.16,1686.65732 1650.63529,1692.6432 C1646.23059,1693.65967 1641.93882,1694.11144 1637.64706,1694.11144 C1616.52706,1694.11144 1596.87529,1682.36555 1587.16235,1662.93967 C1379.23765,1247.2032 964.178824,1242.34673 960,1242.34673 L960,1242.34673 L564.705882,1242.34673 L564.705882,1807.05261 L652.461176,1807.05261 C640.602353,1716.92555 634.955294,1560.05026 715.934118,1456.37026 C768.338824,1389.2832 845.590588,1355.28791 945.882353,1355.28791 L945.882353,1355.28791 L945.882353,1468.22908 C881.392941,1468.22908 835.312941,1487.09026 805.044706,1525.71614 C736.263529,1613.58438 759.981176,1789.54673 774.776471,1849.97026 C778.955294,1866.79849 775.115294,1884.6432 764.498824,1898.30908 C753.769412,1911.97496 737.28,1919.99379 720,1919.99379 L720,1919.99379 L508.235294,1919.99379 C477.063529,1919.99379 451.764706,1894.80791 451.764706,1863.5232 L451.764706,1863.5232 L451.764706,1242.34673 L395.294118,1242.34673 C239.548235,1242.34673 112.941176,1115.73967 112.941176,959.993788 L112.941176,959.993788 L112.941176,903.5232 L56.4705882,903.5232 C25.2988235,903.5232 0,878.337318 0,847.052612 C0,815.880847 25.2988235,790.582024 56.4705882,790.582024 L56.4705882,790.582024 L112.941176,790.582024 L112.941176,734.111435 C112.941176,578.478494 239.548235,451.758494 395.294118,451.758494 L395.294118,451.758494 L959.887059,451.758494 C976.828235,451.645553 1380.36706,444.756141 1587.16235,31.2784941 Z M1581.17647,249.706729 C1386.46588,492.078494 1128.96,547.871435 1016.47059,560.746729 L1016.47059,560.746729 L1016.47059,1133.47144 C1128.96,1146.34673 1386.46588,1202.02673 1581.17647,1444.51144 L1581.17647,1444.51144 Z M903.529412,564.699671 L395.294118,564.699671 C301.891765,564.699671 225.882353,640.709082 225.882353,734.111435 L225.882353,734.111435 L225.882353,959.993788 C225.882353,1053.39614 301.891765,1129.40555 395.294118,1129.40555 L395.294118,1129.40555 L903.529412,1129.40555 L903.529412,564.699671 Z M1694.11765,688.144376 L1694.11765,1006.07379 C1759.73647,982.694965 1807.05882,920.577318 1807.05882,847.052612 C1807.05882,773.527906 1759.73647,711.5232 1694.11765,688.144376 L1694.11765,688.144376 Z" stroke="none" stroke-width="1" fill-rule="evenodd"/>
</svg>

<svg viewBox="0 0 1920 1920" version="1.1" xmlns="http://www.w3.org/2000/svg">
    <path d="M1920 847.053c0 136.32-97.13 250.503-225.882 276.705v513.883c0 26.202-17.958 49.016-43.483 55.002a57.279 57.279 0 0 1-12.988 1.468c-21.12 0-40.772-11.745-50.485-31.171C1379.238 1247.203 964.18 1242.347 960 1242.347H564.706v564.706h87.755c-11.859-90.127-17.506-247.003 63.473-350.683 52.405-67.087 129.657-101.082 229.948-101.082v112.941c-64.49 0-110.57 18.861-140.837 57.487-68.781 87.868-45.064 263.83-30.269 324.254 4.18 16.828.34 34.673-10.277 48.34-10.73 13.665-27.219 21.684-44.499 21.684H508.235c-31.171 0-56.47-25.186-56.47-56.47v-621.177h-56.47c-155.747 0-282.354-126.607-282.354-282.353v-56.47h-56.47C25.299 903.523 0 878.336 0 847.052c0-31.172 25.299-56.471 56.47-56.471h56.471v-56.47c0-155.634 126.607-282.354 282.353-282.354h564.593c16.941-.112 420.48-7.002 627.275-420.48 11.52-23.491 37.27-35.689 63.473-29.816 25.525 6.099 43.483 28.8 43.483 55.002V570.46C1822.87 596.662 1920 710.733 1920 847.053zm-225.882 159.02c65.618-23.378 112.94-85.496 112.94-159.02 0-73.525-47.322-135.53-112.94-158.909v317.93zm-112.942 438.438V249.707c-194.71 242.371-452.216 298.164-564.705 311.04v572.724c112.489 12.876 369.995 68.556 564.705 311.04zM903.53 1129.406V564.7H395.294c-93.402 0-169.412 76.01-169.412 169.411v225.883c0 93.402 76.01 169.412 169.412 169.412H903.53z" stroke="none" stroke-width="1" fill-rule="evenodd"/>
</svg>
